components/Common/Svg/svgs/linkedinRoundBlack.svg

<svg
  width="48"
  height="48"
  viewBox="0 0 48 48"
  fill="none"
  xmlns="http://www.w3.org/2000/svg"
>
  <path
    d="M18.1633 18.3267C19.3581 18.3267 20.3267 17.3581 20.3267 16.1633C20.3267 14.9686 19.3581 14 18.1633 14C16.9686 14 16 14.9686 16 16.1633C16 17.3581 16.9686 18.3267 18.1633 18.3267Z"
    fill="white"
  ></path>
  <path
    d="M22.3696 19.966V31.9682H26.0961V26.0329C26.0961 24.4667 26.3908 22.95 28.3326 22.95C30.2478 22.95 30.2715 24.7406 30.2715 26.1317V31.9692H34V25.3872C34 22.1541 33.3039 19.6694 29.525 19.6694C27.7107 19.6694 26.4946 20.6651 25.9972 21.6073H25.9468V19.966H22.3696ZM16.2969 19.966H20.0293V31.9682H16.2969V19.966Z"
    fill="white"
  ></path>
  <circle
    opacity="0.3"
    cx="24"
    cy="24"
    r="23.5"
    stroke="white"
  ></circle>
</svg>

<svg width="48" height="48" viewBox="0 0 48 48" fill="none" xmlns="http://www.w3.org/2000/svg"><path d="M18.163 18.327a2.163 2.163 0 1 0 0-4.327 2.163 2.163 0 0 0 0 4.327ZM22.37 19.966v12.002h3.726v-5.935c0-1.566.295-3.083 2.237-3.083 1.915 0 1.939 1.79 1.939 3.182v5.837H34v-6.582c0-3.233-.696-5.718-4.475-5.718-1.814 0-3.03.996-3.528 1.938h-.05v-1.641H22.37Zm-6.073 0h3.732v12.002h-3.732V19.966Z" fill="#fff"/><circle opacity=".3" cx="24" cy="24" r="23.5" stroke="#fff"/></svg>
